icon-themes/sifr_svg/cmd/sc_splittable.svg

<svg viewBox="0 0 16 16" xmlns="http://www.w3.org/2000/svg"><path d="m0 1v6h9v-6zm12.5625 0-.28125.28125-2 2c-.18125.18817-.28125.45344-.28125.71875v1h1c.2653 0 .529799-.0931.699219-.28125l.300781-.28125v.5625 1h2v-1-.5625l.28125.28125c.18818.18125.45344.28125.71875.28125h1v-1c0-.26529-.1-.5297887-.28125-.6992188l-2-2-.28125-.3007812zm-10.5625 2h2v2h-2zm3 0h2v2h-2zm-5 6v6h9v-6zm12 1v1 .5625l-.300781-.261719c-.16942-.200781-.433919-.300781-.699219-.300781h-1v1c0 .26531.1.529799.28125.699219l2 2 .28125.300781h.875l.28125-.28125 2-2c.18125-.18818.28125-.45346.28125-.71875v-1h-1c-.26531 0-.529789.1-.699219.28125l-.300781.28125v-.5625-1zm-10 1h2v2h-2zm3 0h2v2h-2z" fill="#555753"/></svg>

<svg xmlns="http://www.w3.org/2000/svg" viewBox="0 0 16 16">
  <path
     style="fill:#555753"
     d="M 0 1 L 0 7 L 9 7 L 9 1 L 0 1 z M 12.5625 1 L 12.28125 1.28125 L 10.28125 3.28125 C 10.1 3.46942 10 3.73469 10 4 L 10 5 L 11 5 C 11.2653 5 11.529799 4.9069 11.699219 4.71875 L 12 4.4375 L 12 5 L 12 6 L 14 6 L 14 5 L 14 4.4375 L 14.28125 4.71875 C 14.46943 4.9 14.73469 5 15 5 L 16 5 L 16 4 C 16 3.73471 15.9 3.4702113 15.71875 3.3007812 L 13.71875 1.3007812 L 13.4375 1 L 12.5625 1 z M 2 3 L 4 3 L 4 5 L 2 5 L 2 3 z M 5 3 L 7 3 L 7 5 L 5 5 L 5 3 z M 0 9 L 0 15 L 9 15 L 9 9 L 0 9 z M 12 10 L 12 11 L 12 11.5625 L 11.699219 11.300781 C 11.529799 11.1 11.2653 11 11 11 L 10 11 L 10 12 C 10 12.26531 10.1 12.529799 10.28125 12.699219 L 12.28125 14.699219 L 12.5625 15 L 13.4375 15 L 13.71875 14.71875 L 15.71875 12.71875 C 15.9 12.53057 16 12.26529 16 12 L 16 11 L 15 11 C 14.73469 11 14.470211 11.1 14.300781 11.28125 L 14 11.5625 L 14 11 L 14 10 L 12 10 z M 2 11 L 4 11 L 4 13 L 2 13 L 2 11 z M 5 11 L 7 11 L 7 13 L 5 13 L 5 11 z "
     />
</svg>
